src/lib/packages/icons/src/assets/filled/lock.svg

<svg width="24" height="24" viewBox="0 0 24 24" fill="none" xmlns="http://www.w3.org/2000/svg">
<path d="M16.75 9.05811V7C16.75 4.38 14.62 2.25 12 2.25C9.38 2.25 7.25 4.38 7.25 7V9.05811C5.752 9.29111 5 10.269 5 12V18C5 20 6 21 8 21H16C18 21 19 20 19 18V12C19 10.269 18.248 9.29111 16.75 9.05811ZM12.75 14.9871V17C12.75 17.414 12.414 17.75 12 17.75C11.586 17.75 11.25 17.414 11.25 17V14.9619C10.962 14.7329 10.7649 14.395 10.7649 14C10.7649 13.31 11.32 12.75 12.01 12.75H12.02C12.71 12.75 13.27 13.31 13.27 14C13.27 14.412 13.057 14.7601 12.75 14.9871ZM15.25 9H8.75V7C8.75 5.21 10.21 3.75 12 3.75C13.79 3.75 15.25 5.21 15.25 7V9Z" fill="currentColor"/>
</svg>

<svg xmlns="http://www.w3.org/2000/svg" width="24" height="24" fill="none"><path fill="currentColor" d="M16.75 9.058V7c0-2.62-2.13-4.75-4.75-4.75S7.25 4.38 7.25 7v2.058C5.752 9.291 5 10.27 5 12v6c0 2 1 3 3 3h8c2 0 3-1 3-3v-6c0-1.731-.752-2.709-2.25-2.942Zm-4 5.93V17a.75.75 0 0 1-1.5 0v-2.038a1.228 1.228 0 0 1-.485-.962c0-.69.555-1.25 1.245-1.25h.01c.69 0 1.25.56 1.25 1.25 0 .412-.213.76-.52.987ZM15.25 9h-6.5V7c0-1.79 1.46-3.25 3.25-3.25S15.25 5.21 15.25 7v2Z"/></svg>
